Origami/32x32/apps/riot-web.svg

<svg width="32" height="32" version="1.1" viewBox="0 0 32 32" xmlns="http://www.w3.org/2000/svg">
 <path d="m8.5 3a3.5 3.5 0 0 0 -3.5 3.5 3.5 3.5 0 0 0 3.5 3.5 3.5 3.5 0 0 0 3.5 -3.5 3.5 3.5 0 0 0 -3.5 -3.5zm2.7871 0c1.034 0.8266 1.713 2.0821 1.713 3.5 0 2.4734-2.027 4.5-4.5 4.5-1.4179 0-2.6734-0.679-3.5-1.7129v18.713c0 1.859 1.6404 3 3.5 3 1.86 0 3.5-1.14 3.5-3v-7h1.4609l-0.63281-0.9043v-2e-3l-2e-3 -2e-3c-0.536-0.758-0.824-1.662-0.826-2.59v-2e-3c0-2.473 2.027-4.5 4.5-4.5 1.547 1e-3 2.9885 0.79938 3.8105 2.1094l2.7891 3.9824c2.361-1.87 3.9-4.771 3.901-7.091 0-4.9706-4.029-9-9-9zm5.213 11c-1.933 0-3.5 1.567-3.5 3.5 0.0014 0.71811 0.22373 1.4184 0.63672 2.0059l7 10c0.654 0.935 1.722 1.492 2.863 1.494 1.933 0 3.5-1.567 3.5-3.5-1e-3 -0.718-0.224-1.418-0.637-2.006l-7-10c-0.654-0.935-1.722-1.492-2.863-1.494z" style="opacity:.2"/>
 <path d="m11.287 2c1.034 0.8266 1.713 2.0821 1.713 3.5 0 2.4734-2.027 4.5-4.5 4.5-1.4179 0-2.6734-0.6786-3.5-1.7129v18.713c0 1.859 1.6404 3 3.5 3 1.86 0 3.5-1.14 3.5-3v-7h1.461l-0.633-0.904v-2e-3l-2e-3 -2e-3c-0.536-0.758-0.824-1.662-0.826-2.59v-2e-3c0-2.473 2.027-4.5 4.5-4.5 1.547 1e-3 2.989 0.799 3.811 2.109l2.789 3.983c2.36-1.871 3.899-4.772 3.9-7.092 0-4.9706-4.029-9-9-9h-6.713z" style="fill:#3eb07b"/>
 <circle cx="8.5" cy="5.5" r="3.5" style="fill:#764d80"/>
 <path d="m16.5 13c-1.933 0-3.5 1.567-3.5 3.5 0.0014 0.71811 0.22373 1.4184 0.63672 2.0059l7 10c0.654 0.935 1.722 1.492 2.863 1.494 1.933 0 3.5-1.567 3.5-3.5-0.0014-0.71811-0.22373-1.4184-0.63672-2.0059l-7-10c-0.654-0.935-1.722-1.492-2.863-1.494z" style="fill:#764d80"/>
 <path d="m11.287109 2c0.356501 0.2849934 0.666959 0.6239606 0.925782 1h5.787109c4.765849 0 8.654964 3.7066354 8.96875 8.392578 0.009195-0.130512 0.031195-0.265297 0.03125-0.392578 0-4.9706-4.029-9-9-9h-6.712891zm1.669922 3.9160156c-0.214828 2.2777754-2.126267 4.0839844-4.457031 4.0839844-1.4179 0-2.6734-0.6785906-3.5-1.7128906v1c0.8266 1.0342996 2.0821 1.7128906 3.5 1.7128906 2.473 0 4.5-2.0266 4.5-4.5 0-0.1984963-0.017243-0.3925847-0.042969-0.5839844zm-0.912109 11.146484c-0.01448 0.14596-0.044922 0.287927-0.044922 0.4375v0.001953c0.001923 0.892178 0.274636 1.758645 0.771484 2.498047h0.689454l-0.632813-0.904297v-0.001953l-0.001953-0.001953c-0.427047-0.603921-0.688271-1.301722-0.78125-2.029297z" style="fill:#ffffff;opacity:.1"/>
 <path d="M 8.5 2 A 3.5 3.5 0 0 0 5 5.5 A 3.5 3.5 0 0 0 5.0390625 6.0058594 A 3.5 3.5 0 0 1 8.5 3 A 3.5 3.5 0 0 1 11.960938 5.9941406 A 3.5 3.5 0 0 0 12 5.5 A 3.5 3.5 0 0 0 8.5 2 z" style="fill:#ffffff;opacity:.1"/>
 <path d="m16.5 13c-1.933 0-3.5 1.567-3.5 3.5 3.58e-4 0.183518 0.016212 0.365317 0.044922 0.544922 0.225241-1.715591 1.678014-3.044922 3.455078-3.044922 1.141 2e-3 2.209281 0.559141 2.863281 1.494141l7 10c0.306994 0.436715 0.505986 0.936631 0.589844 1.458984 0.019606-0.14995 0.046875-0.297827 0.046875-0.453125-0.0014-0.71811-0.223729-1.418359-0.636719-2.005859l-7-10c-0.654-0.935-1.722281-1.492141-2.863281-1.494141z" style="fill:#ffffff;opacity:.1"/>
</svg>

<svg xmlns="http://www.w3.org/2000/svg" width="32" height="32" version="1.1" viewBox="0 0 32 32">
 <path style="opacity:.2" d="m8.5 3a3.5 3.5 0 0 0 -3.5 3.5 3.5 3.5 0 0 0 3.5 3.5 3.5 3.5 0 0 0 3.5 -3.5 3.5 3.5 0 0 0 -3.5 -3.5zm2.7871 0c1.034 0.8266 1.713 2.0821 1.713 3.5 0 2.4734-2.027 4.5-4.5 4.5-1.4179 0-2.6734-0.679-3.5-1.7129v18.713c0 1.859 1.6404 3 3.5 3 1.86 0 3.5-1.14 3.5-3v-7h1.4609l-0.63281-0.9043v-0.002l-0.002-0.002c-0.536-0.758-0.824-1.662-0.826-2.59v-0.002c0-2.473 2.027-4.5 4.5-4.5 1.547 0.001 2.9885 0.79938 3.8105 2.1094l2.7891 3.9824c2.361-1.87 3.9-4.771 3.901-7.091 0-4.9706-4.029-9-9-9zm5.213 11c-1.933 0-3.5 1.567-3.5 3.5 0.0014 0.71811 0.22373 1.4184 0.63672 2.0059l7 10c0.654 0.935 1.722 1.492 2.863 1.494 1.933 0 3.5-1.567 3.5-3.5-0.001-0.718-0.224-1.418-0.637-2.006l-7-10c-0.654-0.935-1.722-1.492-2.863-1.494z"/>
 <path style="fill:#3eb07b" d="m11.287 2c1.034 0.8266 1.713 2.0821 1.713 3.5 0 2.4734-2.027 4.5-4.5 4.5-1.4179 0-2.6734-0.6786-3.5-1.7129v18.713c0 1.859 1.6404 3 3.5 3 1.86 0 3.5-1.14 3.5-3v-7h1.461l-0.633-0.904v-0.002l-0.002-0.002c-0.536-0.758-0.824-1.662-0.826-2.59v-0.002c0-2.473 2.027-4.5 4.5-4.5 1.547 0.001 2.989 0.799 3.811 2.109l2.789 3.983c2.36-1.871 3.899-4.772 3.9-7.092 0-4.9706-4.029-9-9-9h-6.713z"/>
 <circle style="fill:#764d80" cx="8.5" cy="5.5" r="3.5"/>
 <path style="fill:#764d80" d="m16.5 13c-1.933 0-3.5 1.567-3.5 3.5 0.0014 0.71811 0.22373 1.4184 0.63672 2.0059l7 10c0.654 0.935 1.722 1.492 2.863 1.494 1.933 0 3.5-1.567 3.5-3.5-0.0014-0.71811-0.22373-1.4184-0.63672-2.0059l-7-10c-0.654-0.935-1.722-1.492-2.863-1.494z"/>
 <path style="fill:#ffffff;opacity:0.1" d="M 11.287109 2 C 11.64361 2.2849934 11.954068 2.6239606 12.212891 3 L 18 3 C 22.765849 3 26.654964 6.7066354 26.96875 11.392578 C 26.977945 11.262066 26.999945 11.127281 27 11 C 27 6.0294 22.971 2 18 2 L 11.287109 2 z M 12.957031 5.9160156 C 12.742203 8.193791 10.830764 10 8.5 10 C 7.0821 10 5.8266 9.3214094 5 8.2871094 L 5 9.2871094 C 5.8266 10.321409 7.0821 11 8.5 11 C 10.973 11 13 8.9734 13 6.5 C 13 6.3015037 12.982757 6.1074153 12.957031 5.9160156 z M 12.044922 17.0625 C 12.030442 17.20846 12 17.350427 12 17.5 L 12 17.501953 C 12.001923 18.394131 12.274636 19.260598 12.771484 20 L 13.460938 20 L 12.828125 19.095703 L 12.828125 19.09375 L 12.826172 19.091797 C 12.399125 18.487876 12.137901 17.790075 12.044922 17.0625 z"/>
 <path style="fill:#ffffff;opacity:0.1" d="M 8.5 2 A 3.5 3.5 0 0 0 5 5.5 A 3.5 3.5 0 0 0 5.0390625 6.0058594 A 3.5 3.5 0 0 1 8.5 3 A 3.5 3.5 0 0 1 11.960938 5.9941406 A 3.5 3.5 0 0 0 12 5.5 A 3.5 3.5 0 0 0 8.5 2 z"/>
 <path style="fill:#ffffff;opacity:0.1" d="M 16.5 13 C 14.567 13 13 14.567 13 16.5 C 13.000358 16.683518 13.016212 16.865317 13.044922 17.044922 C 13.270163 15.329331 14.722936 14 16.5 14 C 17.641 14.002 18.709281 14.559141 19.363281 15.494141 L 26.363281 25.494141 C 26.670275 25.930856 26.869267 26.430772 26.953125 26.953125 C 26.972731 26.803175 27 26.655298 27 26.5 C 26.9986 25.78189 26.776271 25.081641 26.363281 24.494141 L 19.363281 14.494141 C 18.709281 13.559141 17.641 13.002 16.5 13 z"/>
</svg>
